X: 36
M: 6/8
L: 1/8
K: G
|:\
g2g g>fe | f2g a>ba |\
g>ag g>fe | d2c (BG2) :|\
|: B>cd e2d | g2d (BG2) |

